!!! OTL: Literature15
!!! Chapter: 5
!!! Section: I
!!! Page: 348
!!! Mode: 
!!! Encoder: DJB
**kern
*staff1
*I"Piano
=1-
*clefG2
*k[b-e-a-d-]
*A-:
*M3/4
4cc\
4cc\
4cc\
=2
4.b-\
8cc\
4dd-\
=3
4e-/
4f/
4g/
=4
2.a-/
=5
4ee-\
4ee-\
4ee-\
=6
4.dd-\
8ee-\
4ff\
=7
4dd-\
4dd-\
4dd-\
=8
4.cc\
8dd-\
4ee-\
=9
4a-/
4a-/
4a-/
=10
4.b-\
8a-/
4g/
=11
!!linebreak:original
4ee-\
4dd-\
4b-\
=12
2.a-/
==
*-
